assets/images/clients/KASPERSKY.svg

<svg width="300" height="120" viewBox="0 0 300 120" fill="none" xmlns="http://www.w3.org/2000/svg">
<path d="M142.378 60.574C142.378 66.2228 138.936 68.889 134.632 68.8829H132.01V65.4924H134.438C137.03 65.4924 138.76 64.0923 138.766 60.5679C138.772 57.0434 137.133 55.3269 134.371 55.3269C131.706 55.3269 129.806 56.9643 129.8 60.4888V74.6596H126.218V52.3868H129.8V54.3042H130.316C130.871 53.5638 131.593 52.9666 132.424 52.5622C133.255 52.1578 134.17 51.9579 135.093 51.979C139.075 51.985 142.378 54.8643 142.378 60.574ZM118.831 59.0826L116.439 58.8452C114.563 58.6687 113.574 58.1574 113.574 57.0617C113.574 55.7591 114.843 55.0103 116.651 55.0103C118.46 55.0103 119.687 55.9052 119.82 57.1713H123.268C123.135 53.9573 120.646 51.9668 116.688 51.9668C112.73 51.9668 110.01 54.079 110.01 57.1956C110.01 59.7948 111.643 61.4566 115.365 61.8523L117.793 62.0958C119.262 62.2358 120.251 62.5401 120.251 63.9219C120.251 65.188 119.329 66.1072 116.9 66.1072C114.673 66.1072 113.574 65.0906 113.191 63.7271H109.434C109.804 66.8376 112.408 69.2542 116.876 69.2542C121.071 69.2542 123.802 67.0385 123.808 63.7758C123.808 60.8601 121.902 59.3931 118.831 59.0826ZM156.249 63.788C155.912 64.5048 155.369 65.1041 154.689 65.5088C154.01 65.9134 153.225 66.1049 152.436 66.0585C149.808 66.0585 147.865 64.3419 147.871 60.647C147.871 57.1226 149.693 55.1686 152.479 55.1686C154.974 55.1686 156.406 56.6782 156.54 58.9365H150.087V61.5357H160.049V59.8374C160.049 55.0834 156.91 51.9972 152.442 51.9972C148.278 51.9972 144.284 54.8277 144.278 60.647C144.272 66.4663 148.266 69.309 152.43 69.309C154.101 69.3692 155.743 68.8553 157.083 67.8524C158.423 66.8494 159.382 65.4177 159.8 63.7941L156.249 63.788ZM99.9276 51.9485C96.0061 51.9485 93.068 53.9999 92.722 57.1469H96.5767C96.8559 55.9843 97.9122 55.1321 99.9276 55.1321C102.52 55.1321 103.369 56.5078 103.369 58.1757V63.8245C102.783 64.5577 102.045 65.1549 101.207 65.5752C100.369 65.9955 99.4499 66.2289 98.5132 66.2594C96.7406 66.2594 95.5083 65.4011 95.5144 63.861C95.5205 62.321 96.4674 61.4627 98.3128 61.4688H101.178V58.9H98.2036C94.1121 58.9 91.8236 60.9514 91.8236 64.0984C91.8236 67.0385 94.0332 69.2664 97.6876 69.2725C99.5658 69.2349 101.383 68.5949 102.872 67.4463H103.388V68.8525H106.969V57.8165C106.957 53.7686 104.195 51.9546 99.9276 51.9485ZM75.6035 68.8342H79.185L79.2033 46.251H75.6035V68.8342ZM90.6641 52.3381H86.2995L81.0669 59.2226V61.3775L86.4209 68.8464H90.8584L84.5877 60.2879L90.6641 52.3381ZM220.042 52.4416L217.098 58.9792C216.433 60.3042 215.896 61.6903 215.496 63.1184H214.98C214.567 61.7077 214.02 60.34 213.347 59.0339L210.421 52.4598H206.457L213.341 67.2759L209.923 74.7326H213.741L224 52.4659L220.042 52.4416ZM205.668 52.4416H201.297L196.07 59.3139V61.4688L201.424 68.9316H205.856L199.585 60.3853L205.668 52.4416ZM183.207 59.1374L180.822 58.8939C178.946 58.7235 177.956 58.2122 177.956 57.1165C177.956 55.8139 179.219 55.0651 181.028 55.0651C182.837 55.0651 184.1 55.9539 184.203 57.22H187.645C187.511 54.006 185.022 52.0155 181.064 52.0155C177.106 52.0155 174.387 54.1277 174.387 57.2443C174.387 59.8435 176.02 61.5053 179.741 61.901L182.169 62.1445C183.632 62.2784 184.597 62.5888 184.597 63.9706C184.597 65.2367 183.675 66.1559 181.253 66.1559C179.025 66.1559 177.926 65.1393 177.537 63.7758H173.81C174.181 66.8863 176.785 69.2968 181.253 69.3029C185.447 69.3029 188.179 67.0872 188.185 63.8245C188.209 60.9209 186.297 59.4479 183.225 59.1374H183.207ZM190.589 68.9316H194.17V46.3484H190.589V68.9316ZM166.969 54.3225H166.459V52.4172H162.877V68.9073H166.459V60.2879C166.459 57.3478 167.819 55.6373 170.49 55.6373H172.76V51.985H171.449C168.984 52.0094 167.928 52.9468 166.987 54.3347L166.969 54.3225Z" fill="#949494"/>
</svg>

<svg width="300" height="120" viewBox="0 0 300 120" fill="none" xmlns="http://www.w3.org/2000/svg"><path d="M142.378 60.574c0 5.649-3.442 8.315-7.746 8.309h-2.622v-3.39h2.428c2.592 0 4.322-1.4 4.328-4.925.006-3.525-1.633-5.241-4.395-5.241-2.665 0-4.565 1.637-4.571 5.162v14.17h-3.582V52.388h3.582v1.917h.516a5.797 5.797 0 0 1 4.777-2.325c3.982.006 7.285 2.885 7.285 8.595Zm-23.547-1.491-2.392-.238c-1.876-.176-2.865-.688-2.865-1.783 0-1.303 1.269-2.052 3.077-2.052 1.809 0 3.036.895 3.169 2.161h3.448c-.133-3.214-2.622-5.204-6.58-5.204s-6.678 2.112-6.678 5.229c0 2.599 1.633 4.26 5.355 4.656l2.428.244c1.469.14 2.458.444 2.458 1.826 0 1.266-.922 2.185-3.351 2.185-2.227 0-3.326-1.016-3.709-2.38h-3.757c.37 3.11 2.974 5.527 7.442 5.527 4.195 0 6.926-2.216 6.932-5.478 0-2.916-1.906-4.383-4.977-4.693Zm37.418 4.705a3.965 3.965 0 0 1-3.813 2.27c-2.628 0-4.571-1.716-4.565-5.411 0-3.524 1.822-5.478 4.608-5.478 2.495 0 3.927 1.51 4.061 3.768h-6.453v2.599h9.962v-1.699c0-4.754-3.139-7.84-7.607-7.84-4.164 0-8.158 2.83-8.164 8.65-.006 5.82 3.988 8.662 8.152 8.662a7.326 7.326 0 0 0 4.653-1.457 7.362 7.362 0 0 0 2.717-4.058l-3.551-.006Zm-56.321-11.84c-3.922 0-6.86 2.052-7.206 5.199h3.855c.279-1.163 1.335-2.015 3.35-2.015 2.593 0 3.442 1.376 3.442 3.044v5.648a6.496 6.496 0 0 1-4.856 2.435c-1.772 0-3.005-.858-2.999-2.398.007-1.54.953-2.398 2.799-2.392h2.865V58.9h-2.974c-4.092 0-6.38 2.051-6.38 5.198 0 2.94 2.21 5.168 5.864 5.174a8.776 8.776 0 0 0 5.184-1.826h.516v1.407h3.581V57.817c-.012-4.048-2.774-5.862-7.041-5.868ZM75.603 68.835h3.582l.018-22.583h-3.6v22.583Zm15.061-16.496H86.3l-5.232 6.885v2.154l5.354 7.47h4.437l-6.27-8.56 6.076-7.949Zm129.378.104-2.944 6.537a23.146 23.146 0 0 0-1.602 4.14h-.516a23.067 23.067 0 0 0-1.633-4.085l-2.926-6.574h-3.964l6.884 14.816-3.418 7.457h3.818L224 52.466l-3.958-.024Zm-14.374 0h-4.371l-5.227 6.872v2.155l5.354 7.463h4.432l-6.271-8.547 6.083-7.943Zm-22.461 6.695-2.385-.243c-1.876-.17-2.866-.682-2.866-1.777 0-1.303 1.263-2.052 3.072-2.052 1.809 0 3.072.889 3.175 2.155h3.442c-.134-3.214-2.623-5.204-6.581-5.204s-6.677 2.112-6.677 5.228c0 2.6 1.633 4.261 5.354 4.657l2.428.243c1.463.134 2.428.445 2.428 1.827 0 1.266-.922 2.185-3.344 2.185-2.228 0-3.327-1.017-3.716-2.38h-3.727c.371 3.11 2.975 5.52 7.443 5.527 4.194 0 6.926-2.216 6.932-5.478.024-2.904-1.888-4.377-4.96-4.688h-.018Zm7.382 9.795h3.581V46.348h-3.581v22.584Zm-23.62-14.61h-.51v-1.905h-3.582v16.49h3.582v-8.62c0-2.94 1.36-4.65 4.031-4.65h2.27v-3.652h-1.311c-2.465.024-3.521.962-4.462 2.35l-.018-.013Z" fill="#949494"/></svg>
